X:540
%%etbk:tnset id:276,pos:1,rep:3x,ant:
%%etbk:pldat 2016-05-04T15:19,2016-05-02T18:53,2016-04-09T16:07,2016-04-07T17:00,2016-04-05T16:33,2016-04-04T18:15,2016-03-30T16:54,2014-10-30T19:13,2014-10-28T15:42,2014-10-23T18:37,2014-10-15T19:04,2014-10-11T14:15,2013-10-30T15:01,2013-10-29T16:40,2013-10-28T18:13
T:Marie's Wedding
R: song
M: 2/4
L: 1/8
K:Dmaj
P:I
!3!A/!4!B/|:!5!d>A BA/F/|A/B/d/A/ B!3!A/!4!B/|!5!d>A BA/F/|G/E/F/D/ E2:|
F/E/|D>E F>A|BA/F/ A/F/E/E/|D>E F>A/F/|G/E/F/D/ EF/E/|
D>E F>A|BA/F/ AA/B/|d>A BA/F/|G/E/F/D/ E2|-E4|-E4||
P:Song
!1!A>B AB|!4!d!5!e !4!f2|!3!ed !1!Bd|!4!f!1!e !2!f<!4!a|
A>B AB|de f2|ed B/A/G|A2 A2:||
!3!a>b ab|!3!a!1!g !4!f2|ed Bd|fe f<a|
a>b ab|ag f2|ed B/A/G|A2 A2:||


